X: 21
T: No_29_I_Raise_the_Sick_Person.krn
N: Derived from No_29_I_Raise_the_Sick_Person.krn
%%abc-version 2.0
%%abcx-abcm2ps-target-version 5.9.1 (29 Sep 2008)
%%abc-creator hum2abc beta
%%abcx-conversion-date 2019/03/15 08:27:55
%%humdrum-veritas 836224251
%%humdrum-veritas-data 3601922960
%%linebreak <none>
%%barnumbers 0
L: 1/8
M: 3/4
K: C clef=bass
[K:clef=bass][M:3/4]E/D3/ D3//C//D/C/ A, z | 
ED (E3/D/) D z | 
ED D3//C//D/ z/ A, z | 
D/A,3/ A,3/E,/D,2 | 
E,/D,3/ D,B,,A,,2 | 
E,/D,3/ E,E, D, z | 
E,/D,3/ D,B,, A,, z | 
[M:2/4]A,,2A,,3/A,,/ | 
A,,2A,, z |]  



